!!!OTL: Getrennte Liebe.
!!!OTL-incipit: MEI SCHATZERL IST WANDERN, KOMMT NIMMER INS HAUS
!!!ARE: Europa, Mitteleuropa, Deutschland, Schwaben; Tirol
!!!SCT: Z1194
!!!YEM: Copyright 1995, estate of Helmut Schaffrath.
**kern	**text
*ICvox	*
*M3/4	*
*k[b-e-a-d-]	*
*A-:	*
!LO:TX:a:t=Aus Tyrol und Schwaben.	!
{4cc	Mei
=1	=1
8dd-L	Schatʒerl
8ccJ	.
4b-	.
4ff	iſt
=2	=2
4.ee-	wan-
8dd-}	-dern,
{4cc	kommt
=3	=3
8dd-L	nim-
8fJ	.
8fL	-mer
8a-J	.
8gL	in's
8b-J	.
=4	=4
(4.a-	Haus,
8b-/)}	.
{4cc	i
=5	=5
8dd-L	thu
8ccJ	.
4b-	mi
4ff	ſo
=6	=6
4.ee-	grä-
8dd-}	-me,
{4cc	drum
=7	=7
8dd-L	ſeh
8fJ	.
8fL	i
8a-J	.
8gL	ſo
8b-J	.
=8	=8
2a-}	aus!
{8ccL	La
8b-J	.
=9	=9
4b-	la
8b-L	.
8ffJ	.
8b-L	.
8ddnJ	.
=10	=10
8ee-L	.
8b-J	.
4.b-}	.
{8cc	.
=11	=11
4b-	.
8ddnL	.
8ffJ	.
8b-L	.
8ddJ	.
=12	=12
4ee-	la
4.ee-;}	.
{8cc	.
=13	=13
8dd-L	.
8ccJ	.
4b-	.
4ff	.
=14	=14
4.ee-	.
8dd-	.
4cc}	.
=15	=15
{(8dd-L	la
8f)	.
(8f	.
8a-)	.
(8g	.
8b-)J	.
=16	=16
(4.a-	.
8b-/)	.
4cc}	.
=17	=17
{8dd-L	.
8ccJ	.
4b-	.
4ff	.
=18	=18
8ee-L	la
8ccc	.
8aa-	.
8ee-	.
8cc	.
8a-J}	.
=19	=19
{8gL	.
8ffJ	.
4ee-	.
8dd-L	.
8b-J	.
=20	=20
2a-}	la!
==	==
!!!AGN: Liebes - Lied, verlassene Liebe
!! Die letzten 12 Takte werden auf die Silbe'la' gesungen.
!!!ONB: ESAC (Essen Associative Code) Database: ZUCCAL
!!!AMT: simple triple
!!!AIN: vox
!!!EED: Helmut Schaffrath
!!!EEV: 1.0
!!!GTL: V. Lieder der Minne.
!!!URL-scan: https://www.digitale-sammlungen.de/de/view/bsb11160573?page=397
!!!ENC: Anna Maria Matuszewska
!!!EEV: 2025/02/05
*-	*-
